public/img/common/icon-reddit.svg

<svg fill="none" height="42" viewBox="0 0 43 42" width="43" xmlns="http://www.w3.org/2000/svg"><rect fill="#fff" height="42" rx="10" width="42" x=".615234"/><path d="m35.8195 21.1987c0-1.6911-1.3675-3.0341-3.0341-3.0341-.8205 0-1.5668.3231-2.1138.8456-2.0888-1.4922-4.949-2.462-8.1323-2.5863l1.3925-6.51581 4.5263.96981c.05 1.144.9948 2.0642 2.1639 2.0642 1.1937 0 2.1634-.9698 2.1634-2.1639 0-1.19368-.9697-2.16345-2.1634-2.16345-.8455 0-1.5919.4974-1.94 1.21871l-5.0482-1.06945c-.1493-.02503-.2986 0-.3982.07464-.1243.07463-.1989.19887-.2235.34813l-1.5423 7.26172c-3.2328.0997-6.1426 1.0695-8.2565 2.5867-.547-.5224-1.2933-.8455-2.1138-.8455-1.69113 0-3.03407 1.3675-3.03407 3.034 0 1.2433.74587 2.2877 1.79075 2.7605-.05007.2981-.07464.5966-.07464.9202 0 4.675 5.44646 8.4804 12.16116 8.4804s12.1611-3.7803 12.1611-8.4804c0-.2985-.025-.6221-.0746-.9202 1.0444-.4728 1.7903-1.5423 1.7903-2.7855zm-20.8405 2.1634c0-1.1937.9698-2.1634 2.1639-2.1634 1.1937 0 2.1635.9697 2.1635 2.1634s-.9698 2.1639-2.1635 2.1639c-1.1941.0246-2.1639-.9702-2.1639-2.1639zm12.1116 5.745c-1.4923 1.4922-4.3274 1.5918-5.1479 1.5918-.8456 0-3.6807-.1247-5.1484-1.5918-.2234-.2239-.2234-.5721 0-.796.2239-.2234.5721-.2234.796 0 .9452.9452 2.9348 1.2683 4.3524 1.2683s3.4317-.3231 4.3519-1.2683c.2239-.2234.5721-.2234.796 0 .1988.2239.1988.5721 0 .796zm-.3982-3.5565c-1.1937 0-2.1635-.9698-2.1635-2.1635 0-1.1936.9698-2.1634 2.1635-2.1634 1.1941 0 2.1639.9698 2.1639 2.1634 0 1.1687-.9698 2.1635-2.1639 2.1635z" fill="#003"/></svg>

<svg width="43" height="42" viewBox="0 0 43 42" fill="none" xmlns="http://www.w3.org/2000/svg">
<rect x="0.615234" width="42" height="42" rx="10" fill="white"/>
<path d="M35.8195 21.1987C35.8195 19.5076 34.452 18.1646 32.7854 18.1646C31.9649 18.1646 31.2186 18.4877 30.6716 19.0102C28.5828 17.518 25.7226 16.5482 22.5393 16.4239L23.9318 9.90809L28.4581 10.8779C28.5081 12.0219 29.4529 12.9421 30.622 12.9421C31.8157 12.9421 32.7854 11.9723 32.7854 10.7782C32.7854 9.58452 31.8157 8.61475 30.622 8.61475C29.7765 8.61475 29.0301 9.11215 28.682 9.83346L23.6338 8.76401C23.4845 8.73898 23.3352 8.76401 23.2356 8.83865C23.1113 8.91328 23.0367 9.03752 23.0121 9.18678L21.4698 16.4485C18.237 16.5482 15.3272 17.518 13.2133 19.0352C12.6663 18.5128 11.92 18.1897 11.0995 18.1897C9.40837 18.1897 8.06543 19.5572 8.06543 21.2237C8.06543 22.467 8.8113 23.5114 9.85618 23.9842C9.80611 24.2823 9.78154 24.5808 9.78154 24.9044C9.78154 29.5794 15.228 33.3848 21.9427 33.3848C28.6574 33.3848 34.1038 29.6045 34.1038 24.9044C34.1038 24.6059 34.0788 24.2823 34.0292 23.9842C35.0736 23.5114 35.8195 22.4419 35.8195 21.1987ZM14.979 23.3621C14.979 22.1684 15.9488 21.1987 17.1429 21.1987C18.3366 21.1987 19.3064 22.1684 19.3064 23.3621C19.3064 24.5558 18.3366 25.526 17.1429 25.526C15.9488 25.5506 14.979 24.5558 14.979 23.3621ZM27.0906 29.1071C25.5983 30.5993 22.7632 30.6989 21.9427 30.6989C21.0971 30.6989 18.262 30.5742 16.7943 29.1071C16.5709 28.8832 16.5709 28.535 16.7943 28.3111C17.0182 28.0877 17.3664 28.0877 17.5903 28.3111C18.5355 29.2563 20.5251 29.5794 21.9427 29.5794C23.3603 29.5794 25.3744 29.2563 26.2946 28.3111C26.5185 28.0877 26.8667 28.0877 27.0906 28.3111C27.2894 28.535 27.2894 28.8832 27.0906 29.1071ZM26.6924 25.5506C25.4987 25.5506 24.5289 24.5808 24.5289 23.3871C24.5289 22.1935 25.4987 21.2237 26.6924 21.2237C27.8865 21.2237 28.8563 22.1935 28.8563 23.3871C28.8563 24.5558 27.8865 25.5506 26.6924 25.5506Z" fill="#000033"/>
</svg>
